X: 16
T: My Darling Asleep
Z: Finnbarr
S: https://thesession.org/tunes/76#setting48420
R: jig
M: 6/8
L: 1/8
K: Dmaj
|:fdd cAA|BAG A2 G|FGA def|~gfg eag|
fdd cAA|BAG A2 G|FGA def|gec d3:|
|:FAA ABA|FAA B2 A|FGA def|gfg eag|
fdd cAA|BAG A2 G|FGA def|gec d3:|

